X: 26326
T: Men Of The Forest, The
R: waltz
M: 3/4
K: Gmajor
D2|G2 D2 D2|G2 D2 D2|G2 A2 B>c|d4 B2|A2 A2 B2|
c2 d3 c|B2 G2 A2|D4 B2|c2 A2 A2|B2 d3 c|B2 G2 A2|
D4 D2|G2 A2 B2|c2 A2 G2|F2 G2||

